X: 3
T: The Piper's Despair
R: reel
M: 4/4
L: 1/8
K: Edor
|: EFGA BAFA | ~B3 c dBAF | D2 BD ADF/G/A | Bdce dBAF |
EFGA BAFA | B/c/d ec dBAF | DAFA dfaf | gfed Beed :|
|: efge bege | bege befe | d2 d/d/d aded | Bd d/d/d fgfd |
eBB/B/B bBgf | efga bgaf | defd gaaf | gfed Beed :|


Tune 336	Setting 336

